X:41
T:Bourr\'ee droite du Morvan
C:Trad 2, 39
O:France
M:3/8
L:1/16
K:G
G2|:F2ABAF|G2BGBd|c2AFAc|B4G2|\
F2ABAF|G2BGBd|c2AFAF|1 G4G2:|2 G4GB||
d2e2B2|d4AB|c2dcBA|B2G2GB|\
d2e2B2|d4AB|c2dcBA|G4GB:|**
